X: 23824
T: Little Man With The Brown Shoes, The
R: reel
M: 4/4
K: Adorian
A2 ef edBd|g2 ga (3gfe dB|G2 DE GBdB|AdBA GBAG|
A2 ef edBd|g2 ga g2 gf|edBd g2 ga|1 gedB BedB:|2 gedB GABd||
eaag abag|ed (3Bcd edgd|(3Bcd BA G2 (3Bcd|edgd ed (3Bcd|
eaag abag|efge d2 (3Bcd|edgd dBed|BG (3Bcd ed (3Bcd:|

